!! 00000] TT[WS
!!!OTL: Shanhu he dangzhu ni zhe huilai
!!!ARE: Asia, China,ÿShanxi Hequ
!! Ethnic Group: Han
!! WI, 7 (2)
!!!SCT: J0008
!!!YEM: Copyright 1995, estate of Helmut Schaffrath.
**kern
*ICvox
*Ivox
*M2/4
*k[f#c#]
*D:
{8.ee
16ee
8ee
8aa
=1
8ee
8dd
8b
8a
=2
8.a
16e
8a
8ee
=3
2e}
=4
{8.ee
16ee
8ee
8aa
=5
8ee
8dd
8b
8a
=6
8.a
16e
8a
8b
=7
2a}
==
!!!AGN: Shange, Shanqu. Qingge
!!!ONB: ESAC (Essen Associative Code) Database: CHINA
!!!AMT: simple duple
!!!AIN: vox
!!!EED: Helmut Schaffrath
!!!EEV: 1.0
*-
